!!!COM: Scriabin, Alexander
!!!OTL: Poème
!!!OPR: 2 Morceaux
!!!OPS: 59
!!!ONM: 1
!!!ODT: 1910
!!!AGN: Poem
**kern	**kern
*staff2	*staff1
*Ipiano	*Ipiano
*clefF4	*clefG2
*k[]	*k[]
*M6/8	*M6/8
=1	=1
*^	*
2.g#X	16%3g#	8r
.	.	8cc#XL
.	16%3d#X	.
.	.	[8dd#XJ
.	4A	8dd#L]
.	.	8.ccc#X
.	8BB	.
.	.	16gg#XJk
*v	*v	*
=2	=2
*	*^
8g-XL	2.aa	4g-X
8e-X	.	.
8AJ	.	8gn
8E-XL	.	4ddn
8FFJ	.	.
8r	.	8cc#X
*	*v	*v
=3	=3
*^	*
2.g#X	16%3g#	8r
.	.	8cc#XL
.	16%3d#X	.
.	.	[8dd#XJ
.	4A	8dd#L]
.	.	8.ccc#X
.	8BB	.
.	.	16gg#XJk
*v	*v	*
=4	=4
*	*^
8a-XL	2.bb	4a-X
8f	.	.
8BJ	.	8an
8FL	.	4ee
8GGnJ	.	.
8r	.	8dd#X
*	*v	*v
=5	=5
*^	*
[4.a#X	16%3a#	8r
.	.	8dd#XL
.	16%3e#X	.
.	.	[8ee#XJ
4a#_	4B	8ee#L]
.	.	8ddd#X
16a#LL]	8C#X	8aa#XJ
16a#JJ	.	.
=6	=6	=6
[4.dd#X	8dd#L	8r
.	8e#X	8gg#XL
.	8BJ	[8aa#XJ
4dd#_	8C#XL	8aa#L]
.	8FF#XJ	8ddd#X
16dd#LL]	8rEE	8aaa#XJ
16dd#JJ	.	.
=7	=7	=7
2.dd	8ddnL	8r
.	8b-X	8bbb-XL
.	8enJ	[8aanJ
.	8B-XL	8aaL]
.	8CnJ	8gg#X
.	8rEE	8eeeJ
=8	=8	=8
2.g#X	8g#L	2.dd
.	8e	.
.	8A#XJ	.
.	8EL	.
.	8FF#XJ	.
.	8rEE	.
*clefG2	*	*
=9	=9	=9
2.dd	8ddL	8r
.	8b-X	8bbb-XL
.	8eJ	[8aanJ
*clefF4	*	*
.	8B-XL	8aaL]
.	8CJ	8gg#X
.	8rEE	8eeeJ
=10	=10	=10
[4.g#X	8g#L	[4.dd
.	8e	.
.	8A#XJ	.
4g#_	8EL	4dd]
.	8FF#XJ	.
16g#LL]	8rEE	8cc#X
16g#JJ	.	.
=11	=11	=11
[4.g#X	8g#L	[4.dd
.	8e	.
.	8A#XJ	.
4g#_	8EL	4dd]
.	8FF#XJ	.
16g#LL]	8rEE	8cc#X
16g#JJ	.	.
=12	=12	=12
[4.g#X	8g#L	[2.dd#X
.	8c#X	.
.	8AnJ	.
4g#_	8D#XL	.
.	8EE#XJ	.
16g#LL]	8rEE	.
16g#JJ	.	.
=13	=13	=13
2.g#X	16%3g#	8dd#L]
.	.	8cc#X
.	16%3d#X	.
.	.	[8dd#XJ
.	4A	8dd#L]
.	.	8.ccc#X
.	8BB	.
.	.	16gg#XJk
*v	*v	*
=14	=14
*	*^
8g-XL	2.aa	4g-X
8e-X	.	.
8AJ	.	8gn
8E-XL	.	4ddn
8FFJ	.	.
8r	.	8cc#X
*	*v	*v
=15	=15
*^	*
2.g#X	16%3g#	8r
.	.	8cc#XL
.	16%3d#X	.
.	.	[8dd#XJ
.	4A	32%3dd#L]
.	.	32%3ccc#X
.	.	32%3.gg#X
.	8BB	.
.	.	64%3aaJk
*v	*v	*
*clefG2	*
=16	=16
*	*^
8b--L	2.cccn	4b--
8g-X	.	.
*clefF4	*	*
8cnJ	.	8b-X
8G-XL	.	4ff
8AA-XJ	.	.
8r	.	8ee
*	*v	*v
=17	=17
*^	*
[4.bn	16%3b	8r
.	.	8eeL
.	16%3f#X	.
.	.	[8ff#XJ
4b_	4c	8ff#L]
.	.	8eee
16bLL]	8D	8bbnJ
16bJJ	.	.
*clefG2	*	*
=18	=18	=18
4ee	8eeL	8r
.	8f#X	8aaL
*clefF4	*	*
8rc	8cJ	[8bbJ
4rc	8DL	8bbL]
.	8GGJ	8eee
*clefG2	*	*
16raa	8rc	8bbbJ
16ee	.	.
=19	=19	=19
2.ee-X	8ee-L	8r
.	8cc-X	8cccc-XL
.	8fnJ	[8bb-XJ
*clefF4	*	*
.	8c-XL	8bb-L]
.	8D-XJ	8aa
.	8rEE	8fffJ
=20	=20	=20
[4.a	8aL	[4.ee-X
.	8f	.
.	8BnJ	.
4a]	8FL	4ee-]
.	8GGJ	.
*clefG2	*	*
8ee-X	8rc	8r
=21	=21	=21
2.dd	8ddL	8r
.	8b-X	8bbb-XL
.	8eJ	[8aaJ
*clefF4	*	*
.	8B-XL	8aaL]
.	8CJ	8gg#X
.	8rEE	8eeenJ
=22	=22	=22
[4.g#X	8g#L	2.dd
.	8e	.
.	8A#XJ	.
4g#]	8EL	.
.	8FF#XJ	.
*clefG2	*	*
8dd	8rc	.
=23	=23	=23
2.cc#X	8cc#L	8r
.	8a	8aaaL
.	8d#XJ	[8gg#XJ
*clefF4	*	*
.	8AL	8gg#L]
.	8D#X	8ff##X
.	8EE#XJ	8ddd#XJ
*v	*v	*
=24	=24
8BBL	2.cc#X
8A	.
8d#XJ	.
4g#X	.
8f##X	.
*clefG2	*
=25	=25
*^	*
2.cc#X	8cc#L	8r
.	8a	8aaaL
.	8d#XJ	[8gg#XJ
*clefF4	*	*
.	8AL	32%3gg#L]
.	.	32%3ff##X
.	8D#X	.
.	.	32%3ddd#X
.	8EE#XJ	.
.	.	32%3cc#XJ
=26	=26	=26
4.c#X	8c#L	4g#X 4aa
.	8A	.
.	8D#XJ	8gn 8dd#X
4.rc	8EE#X	4g#X 4aa
.	8rEE	.
.	8rEE	8gn 8dd#
*clefG2	*	*
=27	=27	=27
2.ee-X	8ee-L	16r
.	.	16cccc-XLL
.	8cc-X	16bb-X
.	.	16aa
.	8fJ	16fff
.	.	16ee-XJJ
*clefF4	*	*
.	8c-XL	16r
.	.	16ccc-X
.	8D-XJ	16b-XKL
.	.	8a
.	8rEE	.
.	.	16ffJk
=28	=28	=28
[4.a	8aL	[4.e-X
.	8f	.
.	8BnJ	.
32%3aL]	8FL	4e-]
32%3a-X	.	.
.	8GGJ	.
32%3an	.	.
.	8rc	8r
*clefG2	*	*
32%3ee-XJ	.	.
=29	=29	=29
2.dd	8ddL	16r
.	.	16bbb-XLL
.	8b-X	16aa
.	.	16gg#X
.	8enJ	16eeen
.	.	16ddJJ
*clefF4	*	*
.	8B-XL	16r
.	.	16bb-X
.	8CJ	16aKL
.	.	8g#X
.	8rEE	.
.	.	16eeJk
=30	=30	=30
[4.g#X	8g#L	[4.d
.	8e	.
.	8A#XJ	.
32%3g#L]	8EL	4d]
32%3gn	.	.
.	8FF#XJ	.
32%3g#X	.	.
.	8rc	8r
*clefG2	*	*
32%3ddJ	.	.
=31	=31	=31
2.cc#X	8cc#L	16r
.	.	16aaaLL
.	8a	16gg#X
.	.	16ff##X
.	8d#XJ	16ddd#X
.	.	16cc#XJJ
*clefF4	*	*
.	8AL	16r
.	.	16aa
.	8D#X	16g#XKL
.	.	8f##X
.	8EE#XJ	.
.	.	16dd#XJk
*v	*v	*
=32	=32
8BBL	2.c#X
8A	.
8d#XJ	.
4g#X	.
8f##X	.
*clefG2	*
=33	=33
*^	*
2.cc#X	8cc#L	16r
.	.	16aaaLL
.	8a	16gg#X
.	.	16ff##X
.	8d#XJ	16ddd#X
.	.	16cc#XJJ
*clefF4	*	*
.	8AL	16r
.	.	16aaLL
.	8D#X	16g#X
.	.	16f##X
.	8EE#XJ	16dd#X
.	.	16c#XJJ
=34	=34	=34
4.c#X	8c#L	8g#XL 8aa
.	8A	8gn 8dd#X
.	8D#XJ	8g#XJ 8aa
4.rc	8EE#X	8gnL 8dd#
.	8rEE	8g#X 8aa
.	8rEE	8gnJ 8dd#
*v	*v	*
=35	=35
4BB 4A 4d#X 4g#X	8r
.	8cc#XL
8r	[8dd#XJ
4.r	8dd#L]
.	8ccc#X
.	8gg#XJ
*clefG2	*
=36	=36
8E#X 8d#X 8a 8cc#X 8gg#X	8bb
*clefF4	*
8r	8c#XL
8EE#X	[8d#XJ
8D#XL	8d#L]
8A	8cc#X
8c#XJ	8g#XJ
=37	=37
8g#X	2.b
8r	.
8r	.
4.r	.
=38	=38
[8qEE#X/ [8qD#X [8qA	8qc#X/ 8qg#X 8qb
2.EE#] 2.D#] 2.A]	2.c# 2.g# 2.b 2.cc#X 2.gg#X 2.bb
=39	=39
*M9/8	*M9/8
8qBBB [8qBB	8qa 8qc#X 8d#X 8g#X
4BB]	4r
4A	4r
4c#X	4r
4r	4d#X
4r	4g#X
4r	4a
4r	4cc#X
4r	4dd#X
4BBBB 4BBB	4gg#X
==	==
*-	*-
!!!system-decoration: {(*)}
!!!ENC: Bryan Jacob Bell
!!!END: November 2021 to April 2022
!!!PED: Günter Philipp
!!!PTL: Ausgewählte Klavierwerke (Edition Peters)
